X:810
T:Within a Mile
T:Within a Mile of Edinburgh
S:Popular Songs & Melodies of Scotland
Z:Nigel Gatherer
M:4/4
L:1/8
K:G
B>c | d<BA>B G2 B>G | E<GD>B, D2 G>A | B<de>g d<BA>G  | B2 A2  A2
B>c | d<BA>B G2 B>G | E<GD>B, D2 G>A | B<de>g d<BA>B  | G4     G2   ||
z2  | G>AB>c d<B g2 | G>AB>c  d<B g2 | G>AG>E D<B,D>G | B>GB<d e2 g2 |
      G>AB>c d<B g2 | G>AB>c  d<B g2 | G>AG>E D<B,D>G | B<dA>B G2   ||
<end>
<start>
